fs/settings_16_regular.svg

<svg viewBox="0 0 16 16" fill="none" xmlns="http://www.w3.org/2000/svg" height="1em" width="1em">
  <path d="M7.99994 6C6.89537 6 5.99994 6.89543 5.99994 8C5.99994 9.10457 6.89537 10 7.99994 10C9.10451 10 9.99994 9.10457 9.99994 8C9.99994 6.89543 9.10451 6 7.99994 6ZM6.99994 8C6.99994 7.44772 7.44765 7 7.99994 7C8.55222 7 8.99994 7.44772 8.99994 8C8.99994 8.55228 8.55222 9 7.99994 9C7.44765 9 6.99994 8.55228 6.99994 8ZM10.618 4.39833C10.233 4.46825 9.86392 4.21413 9.7937 3.83074L9.53397 2.41496C9.50816 2.27427 9.39961 2.16301 9.25912 2.13325C8.84818 2.04621 8.42685 2.00195 8 2.00195C7.57289 2.00195 7.1513 2.04627 6.74013 2.13341C6.5996 2.1632 6.49104 2.27452 6.46529 2.41527L6.20629 3.8308C6.1994 3.86844 6.18942 3.90551 6.17647 3.9416C6.04476 4.30859 5.6392 4.49978 5.27062 4.36863L3.91115 3.88463C3.77603 3.83652 3.62511 3.87431 3.52891 3.98033C2.96005 4.60729 2.52892 5.34708 2.2672 6.15302C2.22305 6.28899 2.26562 6.43805 2.37502 6.53053L3.47694 7.46206C3.50626 7.48685 3.53352 7.51399 3.55843 7.5432C3.81177 7.84027 3.77528 8.28558 3.47693 8.53783L2.37502 9.46935C2.26562 9.56183 2.22305 9.71089 2.2672 9.84685C2.52892 10.6528 2.96005 11.3926 3.52891 12.0196C3.62511 12.1256 3.77603 12.1634 3.91115 12.1153L5.27068 11.6312C5.30687 11.6184 5.3441 11.6084 5.38196 11.6015C5.76701 11.5316 6.13608 11.7857 6.2063 12.1691L6.46529 13.5846C6.49104 13.7254 6.5996 13.8367 6.74013 13.8665C7.1513 13.9536 7.57289 13.9979 8 13.9979C8.42685 13.9979 8.84818 13.9537 9.25912 13.8666C9.39961 13.8369 9.50816 13.7256 9.53397 13.5849L9.79368 12.1692C9.8006 12.1314 9.81058 12.0944 9.82353 12.0583C9.95524 11.6913 10.3608 11.5001 10.7294 11.6312L12.0888 12.1153C12.224 12.1634 12.3749 12.1256 12.4711 12.0196C13.04 11.3926 13.4711 10.6528 13.7328 9.84685C13.777 9.71089 13.7344 9.56183 13.625 9.46935L12.5231 8.53782C12.4937 8.51303 12.4665 8.48589 12.4416 8.45667C12.1882 8.1596 12.2247 7.71429 12.5231 7.46205L13.625 6.53053C13.7344 6.43805 13.777 6.28899 13.7328 6.15302C13.4711 5.34708 13.04 4.60729 12.4711 3.98033C12.3749 3.87431 12.224 3.83652 12.0888 3.88463L10.7293 4.36865C10.6931 4.38152 10.6559 4.39146 10.618 4.39833ZM3.99863 4.97726L4.93522 5.3107C5.82017 5.62559 6.79872 5.16815 7.11769 4.2794C7.14903 4.19207 7.17324 4.1021 7.18996 4.01078L7.36738 3.04113C7.5757 3.01512 7.78684 3.00195 8 3.00195C8.213 3.00195 8.42397 3.0151 8.63214 3.04107L8.81011 4.01117C8.98053 4.9408 9.87266 5.55003 10.7967 5.38225C10.8877 5.36572 10.9775 5.34176 11.0647 5.31073L12.0014 4.97726C12.2564 5.31084 12.4684 5.67476 12.6319 6.06064L11.8774 6.6984C11.1566 7.30787 11.0675 8.38649 11.6807 9.10555C11.7408 9.17609 11.8067 9.24166 11.8775 9.3015L12.6319 9.93924C12.4684 10.3251 12.2564 10.689 12.0014 11.0226L11.0646 10.6891C10.1797 10.3742 9.20128 10.8317 8.88231 11.7205C8.85096 11.8078 8.82677 11.8978 8.81004 11.9891L8.63214 12.9588C8.42397 12.9848 8.213 12.9979 8 12.9979C7.78684 12.9979 7.5757 12.9848 7.36738 12.9587L7.18994 11.989C7.01965 11.0592 6.12743 10.4498 5.2033 10.6176C5.11227 10.6342 5.0225 10.6581 4.93528 10.6892L3.99863 11.0226C3.74357 10.689 3.53161 10.3251 3.36814 9.93924L4.12257 9.30148C4.84343 8.69201 4.93254 7.61339 4.31933 6.89433C4.25917 6.82378 4.19332 6.75822 4.12254 6.69838L3.36814 6.06064C3.53161 5.67476 3.74357 5.31084 3.99863 4.97726Z" fill="#212121"/>
</svg>

<svg viewBox="0 0 16 16" fill="none" xmlns="http://www.w3.org/2000/svg" height="1em" width="1em">
  <path d="M8 6a2 2 0 1 0 0 4 2 2 0 0 0 0-4ZM7 8a1 1 0 1 1 2 0 1 1 0 0 1-2 0Zm3.618-3.602a.708.708 0 0 1-.824-.567l-.26-1.416a.354.354 0 0 0-.275-.282 6.072 6.072 0 0 0-2.519 0 .354.354 0 0 0-.275.282l-.259 1.416a.71.71 0 0 1-.936.538l-1.359-.484a.355.355 0 0 0-.382.095 5.99 5.99 0 0 0-1.262 2.173.352.352 0 0 0 .108.378l1.102.931a.704.704 0 0 1 0 1.076l-1.102.931a.352.352 0 0 0-.108.378A5.986 5.986 0 0 0 3.53 12.02a.355.355 0 0 0 .382.095l1.36-.484a.708.708 0 0 1 .936.538l.258 1.416c.026.14.135.252.275.281a6.075 6.075 0 0 0 2.52 0 .353.353 0 0 0 .274-.281l.26-1.416a.71.71 0 0 1 .936-.538l1.359.484c.135.048.286.01.382-.095a5.99 5.99 0 0 0 1.262-2.173.352.352 0 0 0-.108-.378l-1.102-.931a.703.703 0 0 1 0-1.076l1.102-.931a.352.352 0 0 0 .108-.378A5.985 5.985 0 0 0 12.47 3.98a.355.355 0 0 0-.382-.095l-1.36.484a.71.71 0 0 1-.111.03Zm-6.62.58.937.333a1.71 1.71 0 0 0 2.255-1.3l.177-.97a5.105 5.105 0 0 1 1.265 0l.178.97a1.708 1.708 0 0 0 2.255 1.3L12 4.977c.255.334.467.698.63 1.084l-.754.637a1.704 1.704 0 0 0 0 2.604l.755.637a4.99 4.99 0 0 1-.63 1.084l-.937-.334a1.71 1.71 0 0 0-2.255 1.3l-.178.97a5.099 5.099 0 0 1-1.265 0l-.177-.97a1.708 1.708 0 0 0-2.255-1.3L4 11.023a4.987 4.987 0 0 1-.63-1.084l.754-.638a1.704 1.704 0 0 0 0-2.603l-.755-.637a5.06 5.06 0 0 1 .63-1.084Z" fill="#212121"/>
</svg>
